X:15556
T:Sl\"angpolska (L\aa{}ngdans ) fr Sk\aa{}ne
R:Polska
R:Longdans
R:Sl\"angpolska
O:Sweden
M:3/4
A:Sk\aa{}ne
K:G
g2 gd ef|g2 ga gf|ef gd ef|1g2 dc B2:|2g4 G2 ::\
G2ABc2|cB AB G2|
DG AB c2 | cB AB G2| \
cB AG FE | DE FG A2 | \
cB AG FE | DE FG A2| \
Bd BG AF | G2 G4 :|
